!!!OTL: Ich gung emol spazieren (3-24), S. 62
!!!id: K1159
**kern
*clefG2
*k[b-]
*F:
{8c
=1
8.f
16f
8f
8g
=2
4a
8f
8a
=3
4cc
4c
=4
4f}
8r
=5
{8c
=6
8.b-
16b-
8b-
8b-
=7
8b-
8dd
4dd
=8
4ff
8ee
8dd
=9
4cc}
8r
=10
{8a
=11
8.a
16a
8a
8a
=12
8a
8cc
4cc
=13
8.g
16b-
8a
8g
=14
4f}
8r
==
*-
!!!minrhy: 16
!!!meters: 2/4 ]  ZZ[3
!!!cut: Ich gung emol spazieren (3-24), S. 62
!!!reg: Luxemburg
!!!trd: KINTZELE, Guillaume: An der Ucht, Bd. 3 Luxemburg 1928
!!!rhy1: X_  X_.XX_X_  X__X_X_  X__X__  X__0_
!!!rhy2: X_  X_.XX_X_  X_X_X__  X__X_X_  X__0_
!!!key: K1159  16  F 2/4 ]  ZZ[3
!!!mod: HEPTATONIK IONISCH]  AMBITUS[11
!!!kad: 151
!!!akz: 1351_44+15_3321_
!!!fot: 'a__b__c__
!!!for: 'a__b__c__
!!!fok: '/__^a_^d_
!! PHRAS[AUFTAKTIG]
!!!fkt: Scherz-, Spottlied &uuml;ber die Liebe
!! KINTZELE
!! PR[31] 2K[1] 2G[1] 3K[7] 3G[6] 4A[3] 4Ü[0] 5A[1] 6K[3] 6G[3]
!! 7K[0] 7G[0] 8A[0] MEHR[0] SI[25] ABS[71] SR[3] SP[23]
!! ST[13] 2k[7] 2g[30] 3k[3] 3g[0] 4d[0] 4ü[0] 5d[0] 6k[4] 6g[0]
!! 7k[0] 7g[0] 8d[0] mehr[0] si[44] dm[-19] sr[37] sp[7]
!! 1F[82] 2F[6] 3F[4] 4F[0] LF[0] 2P[8] 3P[0] 4P[0] TRI[0] DF[4] AB[78]
!! TF[0] U3K[0] U3[0] U4[0] U4Ü[0] U5[0] U6K[0] U6[0] U7K[0] U7[0]
!! N1[0] N2K[0] N2[3] N3K[0] N3[11] N4[15] N4Ü[0] N5[19] N6K[0] N6[18]
!!!n7k: 0] N7[7] O1[21] O2K[0] O2[4] O3K[0] O3[1] HÖ[0
!!!RNB: symbol: &uuml;  = u umlaut (UTF-8: Ã¼)
